X:1
T:CATITA
T:CATITA
T:Chiquinha GONZAGA (1847-1935)
T:Polka pour piano
T:A.Barbon
T:A.Barbon
T:A.Barbon
T:A.Barbon
C:Chiquinha GONZAGA (1847-1935)
Z:A.Barbon
%%score { 1 2 }
L:1/8
Q:1/4=72
M:2/4
K:D
V:1 treble nm="Piano"
V:2 bass nm="Piano"
V:1
S z/!mp! (F/B/A/) | (d/c/f/e/) b_b | a>b (a/f/d/e/) | B>f (e/c/A/B/) | F2 z/!f! (F/B/A/) | %5
 (d/c/f/e/) b_b | a>b (a/f/d/^d/) | [Ece]>c [E^Gd]e | [EAc]2 !fermata!z/!mf! (F/B/A/) | %9
 (d/c/f/e/) b_b | a>b (a/f/d/e/) | B>f (e/c/A/B/) | F2 z/ (F/G/A/) | (B/c/d/e/ f/g/a/b/) | %14
 d'2 z/ (d'/c'/b/) | f2 z/ (a/g/c/) | d2!fine! | z/ (c/d/^d/) ||[K:A] (f/B/d/G/) (B/E/G/D/) | %19
 C/[A,CE][A,CE]/ z/ A,/C/E/ | =F,/[A,D=F][A,DF]/ E,[G,DE] | E,/[A,CE][A,CE]/ z/ (c/d/^d/) | %22
 (f/B/d/G/) (B/E/G/D/) | C/[A,CE][A,CE]/ z/ A,/C/E/ | =F,/[A,D=F][A,DF]/ E,[G,DE] | [A,CEA]>A, AA | %26
 a2 z2 | z [c=ga] z/ (F/B/A/) ||[K:D] (d/c/f/e/) b_b | a>b (a/f/d/e/) | B>f (e/c/A/B/) | %31
 F2 z/ (F/B/A/) | (d/c/f/e/) b_b | a>b (a/f/d/^d/) | [Ece]>c [E^Gd]e | %35
 [EAc]2 !fermata!z/ (F/B/A/) | (d/c/f/e/) b_b | a>b (a/f/d/e/) | B>f (e/c/A/B/) | F2 z/ (F/G/A/) | %40
 (B/c/d/e/ f/g/a/b/) | d'2 z/ (d'/c'/b/) | f2 z/ (a/g/c/) | d2 z d |:[K:G] (d/G/A/B/) (E/G/F/A/) | %45
 D2 z/ (F/G/B/) |{d} c2 [^GB]e | [Ace]2 z c | eg ae | ([df]>a d'e) | ([df]>a) d'd' | %51
 (e'/d'/b/g/ e/d/B/G/) | (c/G/A/B/) (E/G/F/A/) | D2 z/ (F/G/B/) |{d} c2 [^GB]e | [Ace]2 z e | %56
 ac eA | [Bd]>e (f/g/a/b/) | (c'/a/f/d/) (c/A/F/D/) | G2 [GBdg]2!D.S.! :| %60
V:2
 z2 |!f! ^G,/[B,DE][B,DE]/ =G,/[A,CE]G,/ | F,/[A,D][A,D]/ F,[A,D] | E,/[G,B,E][G,B,E]/ A,,[G,A,C] | %4
 D,/[F,A,D][F,A,D]/ D, z | ^G,/[B,DE][B,DE]/ =G,/[A,CE]G,/ | F,/[A,D][A,D]/ F,[A,D] | %7
 E,/[A,CE][A,CE]/ E,,[E,^G,D] | A,,A, !fermata![G,A,C]/ z/ z | ^G,/[B,DE][B,DE]/ =G,/[A,CE]G,/ | %10
 F,/[A,D][A,D]/ F,[A,D] | E,/[G,B,E][G,B,E]/ A,,[G,A,C] | D,/[F,A,D][F,A,D]/ D, z | %13
 G,/[B,E][B,E]/ ^G,[B,DE] | A,/[DFA][DFA]/ A,,[F,A,D] | A,,/[F,A,D][F,A,D]/ A,,[G,A,C] | %16
 [F,A,D]D, | z2 ||[K:A] E,/[G,B,D][G,B,D]/ D,[E,G,B,] | A,,/E,E,/ E,,A,, | D,,/D, z/ B,,E,, | %21
 [A,,,A,,]2 E,,2 | E,/[G,B,D][G,B,D]/ D,[E,G,B,] | A,,/E,E,/ E,,A,, | D,,/D, z/ B,,E,, | %25
 [A,,,A,,]4 | z2 z/ ^G,/A,/C/ | E[=GA] z2 ||[K:D]!f! ^G,/[B,DE][B,DE]/ =G,/[A,CE]G,/ | %29
 F,/[A,D][A,D]/ F,[A,D] | E,/[G,B,E][G,B,E]/ A,,[G,A,C] | D,/[F,A,D][F,A,D]/ D, z | %32
 ^G,/[B,DE][B,DE]/ =G,/[A,CE]G,/ | F,/[A,D][A,D]/ F,[A,D] | E,/[A,CE][A,CE]/ E,,[E,^G,D] | %35
 A,,A, !fermata![G,A,C]/ z/ z | ^G,/[B,DE][B,DE]/ =G,/[A,CE]G,/ | F,/[A,D][A,D]/ F,[A,D] | %38
 E,/[G,B,E][G,B,E]/ A,,[G,A,C] | D,/[F,A,D][F,A,D]/ D, z | G,/[B,E][B,E]/ ^G,[B,DE] | %41
 A,/[DFA][DFA]/ A,,[F,A,D] | A,,/[F,A,D][F,A,D]/ A,,[G,A,C] | [F,A,D]2 D,, z |: %44
[K:G] G,,/[D,G,B,][D,G,B,]/ C,[D,F,A,] | B,,/[D,G,B,][D,G,B,]/ [D,G,B,] z | %46
 E,/[A,CE][A,CE]/ B,,[^G,B,E] | A,,/[A,CE][A,CE]/ [A,CE] z | z4 | D,/[F,CD][F,CD]/ F,[CD] | %50
 D,/[F,CD][F,CD]/ F,[CD] | D,[G,B,D] z2 | G,,/[D,G,B,][D,G,B,]/ C,[D,F,A,] | %53
 B,,/[D,G,B,][D,G,B,]/ [D,G,B,] z | E,/[A,CE][A,CE]/ B,,[^G,B,E] | A,,/[A,CE][A,CE]/ [A,CE] z | %56
 A,,2 z2 | D,/[B,DG][B,DG]/ D,[B,DG] | D,/[F,CD][F,CD]/ D,[F,CD] | z G,, G,2 :| %60

